X:16
T: Սրտիս վրայ քար մը կայ 
T: Srdis Vra Kʿar Mě Ga
C: Udi Hrant Kenkulian
F: https://www.youtube.com/watch?v=cuUBKrZaDVk
K: Dm ^c
L: 1/8
M: 10/8
Q: 1/4=120
%%MIDI program 71 % Clarinet
%%MIDI bassprog 33
%%MIDI chordprog 28
%%MIDI gchord f2cfcf2fcz
%%MIDI drumon
%%MIDI drum dzddzdzdzd 41 35 41 35 100
P: Intro
"A"    A2    e      f2  "Dm"fe f3 | f>ed    e2 "A7"d2 c3             | \
z2     A     "Bb"B2 B2  B>AG      | "Gm"c2B c2 "A7"B2 A3            :|
%
P: Song
z2     "A"(c d2)    (e2 e3)       | "Dm"(f3 ed)    "A7"(cd e2) z     | \
%
w: Սըր-տիս ~վը֊րայ                             | քար-մը  ~ կա ֊ այ
"Dm"f3 d2    "A7"e2 c3            | "Gm"d3  B2 "A"A3  z2            :|
w: Զայն նե-տե-լու                                | ջար չը-գայ։
%
"Dm"z2     c     d2     d2  (d2c) | "A7"B3      A2 "Bb"(B>A   B3)    | \
w: Քա֊րը ~ թող տե                             ղը մը-նայ
%
z2     (AAG) "A7"(AB)   c2  z     | "Gm"B3      A2 "A"A5            :|
w: Քա-րեն ~ քար-սիրտ                      | յար մը կայ։
%
% -----------------------------------------------------
%
%%multicol start
%%begintext
%%
%%
1. Սրտիս վրայ քար մը կայ
     Զայն նետելու ջար չգայ։
     Քարը թող տեղը մնայ
     Քարեն քարսիրտ յար մը կայ։

Chorus:	
      Հով սարեր, մով սարեր,
	Մանկությունս ետ բերեք,
	Ծաղիկների ծով սարեր:
2) Ես հիշում եմ մորս ձայնը սարերում,
      Ոչխարների մակաղելը քարերում,
      Հովիվների սրինգների ձայնն անուշ
      Սարին նստած թուխ ամպերի հովերում:
3) Մեր սարերի ծաղկունքն է իմ սրտի մեջ,
      Նրանց անուշ բուրմունքն է իմ սրտի մեջ,
      Ծաղկի բույրով, հովի շնչով հագեցած
      Մեր երգերի ակունքն է իմ սրտի մեջ:
%%
%%endtext
%%multicol new
%%leftmargin 12cm
%%rightmargin 3cm
%%begintext
%%
%%
1) Es hišum em mer sareri lanǰerë,
   Aġbyurneri saṙ ǰreri kančerë,
   Hovivneri krakneri pes anmar
   Sari eġnik yaris sev-sev ačerë:
Chorus:	
    Hov sarer, mov sarer,
    Mankut’yuns et berek’,
    Çaġikneri çov sarer:
2) Es hišum em mors dzaynë sarerum,
   Očxarneri makaġelë k’arerum,
   Hovivneri sringneri jaynn anuš
   Sarin nstaç t’ux amperi hoverum:
3) Mer sareri çaġkunk’n ē im srti meǰ,
   Nranc’ anuš burmunk’n ē im srti meǰ,
   Çaġki buyrov, hovi šnčov hagec’aç
   Mer ergeri akunk’n ē im srti meǰ:
%%
%%endtext
%%multicol end
%%

